img/svg/noun_ATM_1791339.svg

<?xml version="1.0" encoding="UTF-8" standalone="no"?>
<svg
   xmlns:dc="http://purl.org/dc/elements/1.1/"
   xmlns:cc="http://creativecommons.org/ns#"
   xmlns:rdf="http://www.w3.org/1999/02/22-rdf-syntax-ns#"
   xmlns:svg="http://www.w3.org/2000/svg"
   xmlns="http://www.w3.org/2000/svg"
   xmlns:sodipodi="http://sodipodi.sourceforge.net/DTD/sodipodi-0.dtd"
   xmlns:inkscape="http://www.inkscape.org/namespaces/inkscape"
   viewBox="0 0 48 60"
   x="0px"
   y="0px"
   version="1.1"
   id="svg20"
   sodipodi:docname="noun_ATM_1791339.svg"
   inkscape:version="0.92.3 (2405546, 2018-03-11)">
  <metadata
     id="metadata26">
    <rdf:RDF>
      <cc:Work
         rdf:about="">
        <dc:format>image/svg+xml</dc:format>
        <dc:type
           rdf:resource="http://purl.org/dc/dcmitype/StillImage" />
      </cc:Work>
    </rdf:RDF>
  </metadata>
  <defs
     id="defs24" />
  <sodipodi:namedview
     pagecolor="#ffffff"
     bordercolor="#666666"
     borderopacity="1"
     objecttolerance="10"
     gridtolerance="10"
     guidetolerance="10"
     inkscape:pageopacity="0"
     inkscape:pageshadow="2"
     inkscape:window-width="1366"
     inkscape:window-height="729"
     id="namedview22"
     showgrid="false"
     inkscape:zoom="3.9333333"
     inkscape:cx="26.79661"
     inkscape:cy="30"
     inkscape:window-x="0"
     inkscape:window-y="0"
     inkscape:window-maximized="1"
     inkscape:current-layer="svg20" />
  <title
     id="title2">27-atm</title>
  <g
     data-name="27-atm"
     id="g14"
     transform="translate(0,6)">
    <path
       d="M 29,46 H 3 A 1,1 0 0 1 2,45 V 26 h 13 a 1,1 0 0 0 0,-2 H 7 V 10 h 16 v 9 a 1,1 0 0 0 2,0 v -1 h 3 v 1 a 1,1 0 0 0 2,0 V 3 A 3,3 0 0 0 27,0 H 3 A 3,3 0 0 0 0,3 v 42 a 3,3 0 0 0 3,3 h 26 a 1,1 0 0 0 0,-2 z M 5,20 H 2 V 18 H 5 Z M 5,16 H 2 v -2 h 3 z m -3,8 v -2 h 3 v 2 z M 5,12 H 2 v -2 h 3 z m 23,-2 v 2 h -3 v -2 z m -3,6 v -2 h 3 v 2 z M 3,2 h 24 a 1,1 0 0 1 1,1 V 8 H 2 V 3 A 1,1 0 0 1 3,2 Z"
       id="path4"
       inkscape:connector-curvature="0" />
    <path
       d="M 7,6 H 23 A 1,1 0 0 0 23,4 H 7 a 1,1 0 0 0 0,2 z"
       id="path6"
       inkscape:connector-curvature="0" />
    <path
       d="m 47,35 a 1,1 0 0 0 1,-1 V 25 A 3,3 0 0 0 45,22 H 21 a 3,3 0 0 0 -3,3 v 16 a 3,3 0 0 0 3,3 h 24 a 3,3 0 0 0 3,-3 V 38 A 1,1 0 0 0 47,37 H 23 a 1,1 0 0 0 0,2 h 23 v 2 a 1,1 0 0 1 -1,1 H 21 A 1,1 0 0 1 20,41 V 25 a 1,1 0 0 1 1,-1 h 24 a 1,1 0 0 1 1,1 v 9 a 1,1 0 0 0 1,1 z"
       id="path8"
       inkscape:connector-curvature="0" />
    <path
       d="m 27,26.78 a 3,3 0 1 0 0,4.44 3,3 0 1 0 0,-4.44 z M 25,30 a 1,1 0 1 1 1,-1 1,1 0 0 1 -1,1 z m 5,-1 a 1,1 0 1 1 -1,-1 1,1 0 0 1 1,1 z"
       id="path10"
       inkscape:connector-curvature="0" />
    <path
       d="m 35,28 a 1,1 0 0 0 0,2 h 8 a 1,1 0 0 0 0,-2 z"
       id="path12"
       inkscape:connector-curvature="0" />
  </g>
</svg>

<svg xmlns="http://www.w3.org/2000/svg" viewBox="0 0 48 60" x="0px" y="0px"><title>27-atm</title><g data-name="27-atm"><path d="M29,46H3a1,1,0,0,1-1-1V26H15a1,1,0,0,0,0-2H7V10H23v9a1,1,0,0,0,2,0V18h3v1a1,1,0,0,0,2,0V3a3,3,0,0,0-3-3H3A3,3,0,0,0,0,3V45a3,3,0,0,0,3,3H29a1,1,0,0,0,0-2ZM5,20H2V18H5Zm0-4H2V14H5ZM2,24V22H5v2ZM5,12H2V10H5Zm23-2v2H25V10Zm-3,6V14h3v2ZM3,2H27a1,1,0,0,1,1,1V8H2V3A1,1,0,0,1,3,2Z"/><path d="M7,6H23a1,1,0,0,0,0-2H7A1,1,0,0,0,7,6Z"/><path d="M47,35a1,1,0,0,0,1-1V25a3,3,0,0,0-3-3H21a3,3,0,0,0-3,3V41a3,3,0,0,0,3,3H45a3,3,0,0,0,3-3V38a1,1,0,0,0-1-1H23a1,1,0,0,0,0,2H46v2a1,1,0,0,1-1,1H21a1,1,0,0,1-1-1V25a1,1,0,0,1,1-1H45a1,1,0,0,1,1,1v9A1,1,0,0,0,47,35Z"/><path d="M27,26.78a3,3,0,1,0,0,4.44,3,3,0,1,0,0-4.44ZM25,30a1,1,0,1,1,1-1A1,1,0,0,1,25,30Zm5-1a1,1,0,1,1-1-1A1,1,0,0,1,30,29Z"/><path d="M35,28a1,1,0,0,0,0,2h8a1,1,0,0,0,0-2Z"/></g><text x="0" y="63" fill="#000000" font-size="5px" font-weight="bold" font-family="'Helvetica Neue', Helvetica, Arial-Unicode, Arial, Sans-serif">Created by libertetstudio</text><text x="0" y="68" fill="#000000" font-size="5px" font-weight="bold" font-family="'Helvetica Neue', Helvetica, Arial-Unicode, Arial, Sans-serif">from the Noun Project</text></svg>
